X:69
M:4/4
L:1/4
K:F
G2 G G | d3 c | d B !fermata!A2 | z G B A | B3 d | c B !fermata!A2 | z A c2- | c B A B | (G2 !fermata!F2) | z F B A | B3 d | c B !fermata!A2 | z G B A | B3 d | c B !fermata!A2 | z !sintro!G d2- | d c B c | (A2 !fermata!G2) !eintro!|]
